COLOR/action 16/16/help-about.svg

<svg height="16" width="16" xmlns="http://www.w3.org/2000/svg"><g stroke-width="1.071429" transform="matrix(1.0666667 0 0 1.0666667 -.533333 -.533334)"><path d="m8.0000002 15.5c-.7714286 0-1.9607144-4.4475-2.5071429-4.992857-.5453572-.5464288-4.9928573-1.7357148-4.9928573-2.5071434s4.4475001-1.9607143 4.9928573-2.5071429c.5464285-.5453572 1.7357143-4.99285728 2.5071429-4.99285728s1.9607145 4.44750008 2.5071428 4.99285728c.545357.5464286 4.992857 1.7357143 4.992857 2.5071429s-4.4475 1.9607146-4.992857 2.5071434c-.5464283.545357-1.7357142 4.992857-2.5071428 4.992857z" fill="#eab305"/><path d="m8 .5c-.7714286 0-1.961384 4.4468303-2.5078125 4.9921875-.5453572.5464286-4.9921875 1.7363839-4.9921875 2.5078125 0 .079101.05610377.1632558.140625.25.7397681-.7592246 4.3621253-1.7674138 4.8515625-2.2578125.5464285-.5453572 1.7363839-4.9921875 2.5078125-4.9921875s1.9613842 4.4468303 2.507812 4.9921875c.489438.4903987 4.111795 1.4985879 4.851563 2.2578125.084521-.0867442.140625-.170899.140625-.25 0-.7714286-4.446831-1.9613839-4.992188-2.5078125-.5464278-.5453572-1.7363834-4.9921875-2.507812-4.9921875z" fill="#fff" opacity=".3"/><path d="m.640625 7.75c-.08452123.0867442-.140625.170899-.140625.25 0 .7714286 4.4468303 1.9613837 4.9921875 2.507812.5464285.545358 1.7363839 4.992188 2.5078125 4.992188s1.9613842-4.44683 2.507812-4.992188c.545358-.5464283 4.992188-1.7363834 4.992188-2.507812 0-.079101-.056104-.1632558-.140625-.25-.739768.7592247-4.362125 1.7674136-4.851563 2.257812-.5464278.545358-1.7363834 4.992188-2.507812 4.992188s-1.961384-4.44683-2.5078125-4.992188c-.4894372-.4903984-4.1117944-1.4985873-4.8515625-2.257812z" opacity=".2"/></g></svg>

<?xml version="1.0" encoding="UTF-8" standalone="no"?>
<svg
   xmlns:dc="http://purl.org/dc/elements/1.1/"
   xmlns:cc="http://creativecommons.org/ns#"
   xmlns:rdf="http://www.w3.org/1999/02/22-rdf-syntax-ns#"
   xmlns:svg="http://www.w3.org/2000/svg"
   xmlns="http://www.w3.org/2000/svg"
   xmlns:sodipodi="http://sodipodi.sourceforge.net/DTD/sodipodi-0.dtd"
   xmlns:inkscape="http://www.inkscape.org/namespaces/inkscape"
   height="16"
   width="16"
   version="1.1"
   id="svg10"
   sodipodi:docname="help-about.svg"
   inkscape:version="0.92.4 (5da689c313, 2019-01-14)">
  <metadata
     id="metadata16">
    <rdf:RDF>
      <cc:Work
         rdf:about="">
        <dc:format>image/svg+xml</dc:format>
        <dc:type
           rdf:resource="http://purl.org/dc/dcmitype/StillImage" />
      </cc:Work>
    </rdf:RDF>
  </metadata>
  <defs
     id="defs14" />
  <sodipodi:namedview
     pagecolor="#ffffff"
     bordercolor="#666666"
     borderopacity="1"
     objecttolerance="10"
     gridtolerance="10"
     guidetolerance="10"
     inkscape:pageopacity="0"
     inkscape:pageshadow="2"
     inkscape:window-width="1920"
     inkscape:window-height="1016"
     id="namedview12"
     showgrid="false"
     inkscape:zoom="14.75"
     inkscape:cx="-12.677966"
     inkscape:cy="8"
     inkscape:window-x="0"
     inkscape:window-y="27"
     inkscape:window-maximized="1"
     inkscape:current-layer="svg10" />
  <g
     id="g8"
     transform="matrix(1.0666667,0,0,1.0666667,-0.53333335,-0.53333385)"
     style="stroke-width:1.07142901">
    <path
       d="M 8.0000002,15.5 C 7.2285716,15.5 6.0392858,11.0525 5.4928573,10.507143 4.9475001,9.9607142 0.5,8.7714282 0.5,7.9999996 0.5,7.228571 4.9475001,6.0392853 5.4928573,5.4928567 6.0392858,4.9474995 7.2285716,0.49999942 8.0000002,0.49999942 c 0.7714286,0 1.9607145,4.44750008 2.5071428,4.99285728 C 11.0525,6.0392853 15.5,7.228571 15.5,7.9999996 15.5,8.7714282 11.0525,9.9607142 10.507143,10.507143 9.9607147,11.0525 8.7714288,15.5 8.0000002,15.5 Z"
       id="path2"
       inkscape:connector-curvature="0"
       style="fill:#eab305;fill-opacity:1" />
    <path
       d="M 8,0.5 C 7.2285714,0.5 6.038616,4.9468303 5.4921875,5.4921875 4.9468303,6.0386161 0.5,7.2285714 0.5,8 0.5,8.079101 0.55610377,8.1632558 0.640625,8.25 1.3803931,7.4907754 5.0027503,6.4825862 5.4921875,5.9921875 6.038616,5.4468303 7.2285714,1 8,1 8.7714286,1 9.9613842,5.4468303 10.507812,5.9921875 10.99725,6.4825862 14.619607,7.4907754 15.359375,8.25 15.443896,8.1632558 15.5,8.079101 15.5,8 15.5,7.2285714 11.053169,6.0386161 10.507812,5.4921875 9.9613842,4.9468303 8.7714286,0.5 8,0.5 Z"
       id="path4"
       inkscape:connector-curvature="0"
       style="opacity:0.3;fill:#ffffff" />
    <path
       d="M 0.640625,7.75 C 0.55610377,7.8367442 0.5,7.920899 0.5,8 0.5,8.7714286 4.9468303,9.9613837 5.4921875,10.507812 6.038616,11.05317 7.2285714,15.5 8,15.5 8.7714286,15.5 9.9613842,11.05317 10.507812,10.507812 11.05317,9.9613837 15.5,8.7714286 15.5,8 15.5,7.920899 15.443896,7.8367442 15.359375,7.75 14.619607,8.5092247 10.99725,9.5174136 10.507812,10.007812 9.9613842,10.55317 8.7714286,15 8,15 7.2285714,15 6.038616,10.55317 5.4921875,10.007812 5.0027503,9.5174136 1.3803931,8.5092247 0.640625,7.75 Z"
       id="path6"
       inkscape:connector-curvature="0"
       style="opacity:0.2" />
  </g>
</svg>
